rospo-dark/24x24/actions/transform-move-vertical.svg

<svg xmlns="http://www.w3.org/2000/svg" width="24" height="24" viewBox="0 0 24 24">
 <defs>
  <style id="current-color-scheme" type="text/css">
   .ColorScheme-Text { color:#d3dae3; } .ColorScheme-Highlight { color:#5294e2; }
  </style>
 </defs>
 <path style="fill:currentColor" class="ColorScheme-Text" d="M 13.5 0 A 0.50005 0.50005 0 0 0 13 0.5 L 13 9.4765625 A 0.50005 0.50005 0 0 0 13.5 9.9765625 L 21.492188 9.9765625 A 0.50005 0.50005 0 0 0 21.992188 9.4765625 L 21.992188 0.5 A 0.50005 0.50005 0 0 0 21.492188 0 L 13.5 0 z M 14.501953 0.98632812 L 20.496094 0.98632812 C 20.772224 0.98635812 20.996066 1.2101981 20.996094 1.4863281 L 20.996094 8.484375 C 20.996064 8.760505 20.772224 8.984348 20.496094 8.984375 L 14.501953 8.984375 C 14.225823 8.984345 14.001981 8.760505 14.001953 8.484375 L 14.001953 1.4863281 C 14.001983 1.2101981 14.225823 0.98635512 14.501953 0.98632812 z M 9.5 3.9765625 L 7 6.9765625 L 9 6.9765625 L 9 18.976562 L 10 18.976562 L 10 6.9765625 L 12 6.9765625 L 9.5 3.9765625 z M 13.5 13.976562 A 0.50005 0.50005 0 0 0 13 14.476562 L 13 23.451172 A 0.50005 0.50005 0 0 0 13.5 23.951172 L 21.492188 23.951172 A 0.50005 0.50005 0 0 0 21.992188 23.451172 L 21.992188 14.476562 A 0.50005 0.50005 0 0 0 21.492188 13.976562 L 13.5 13.976562 z M 14.501953 14.962891 L 20.496094 14.962891 C 20.772224 14.962891 20.996064 15.186791 20.996094 15.462891 L 20.996094 22.460938 C 20.996064 22.737037 20.772224 22.960938 20.496094 22.960938 L 14.501953 22.960938 C 14.225823 22.960938 14.001983 22.737037 14.001953 22.460938 L 14.001953 15.462891 C 14.001983 15.186791 14.225823 14.962891 14.501953 14.962891 z"/>
 <path style="fill:currentColor;opacity:0.3" class="ColorScheme-Text" d="M 14 1 L 14 8.9765625 L 20.992188 8.9765625 L 20.992188 1 L 14 1 z M 14 14.976562 L 14 22.951172 L 20.992188 22.951172 L 20.992188 14.976562 L 14 14.976562 z"/>
</svg>

<svg height="24" viewBox="0 0 24 24" width="24" xmlns="http://www.w3.org/2000/svg"><path d="m13.5 0a .50005.50005 0 0 0 -.5.5v8.9765625a.50005.50005 0 0 0  .5.5h7.992188a.50005.50005 0 0 0  .5-.5v-8.9765625a.50005.50005 0 0 0 -.5-.5zm1.001953.98632812h5.994141c.27613.00003.499972.22386998.5.49999998v6.9980469c-.00003.27613-.22387.499973-.5.5h-5.994141c-.27613-.00003-.499972-.22387-.5-.5v-6.9980469c.00003-.27613.22387-.49997298.5-.49999998zm-5.001953 2.99023438-2.5 3h2v11.9999995h1v-11.9999995h2zm4 9.9999995a.50005.50005 0 0 0 -.5.5v8.97461a.50005.50005 0 0 0  .5.5h7.992188a.50005.50005 0 0 0  .5-.5v-8.97461a.50005.50005 0 0 0 -.5-.5zm1.001953.986329h5.994141c.27613 0 .49997.2239.5.5v6.998047c-.00003.276099-.22387.5-.5.5h-5.994141c-.27613 0-.49997-.223901-.5-.5v-6.998047c.00003-.2761.22387-.5.5-.5z" fill="#d3dae3"/><path d="m14 1v7.9765625h6.992188v-7.9765625zm0 13.976562v7.97461h6.992188v-7.97461z" fill="#d3dae3" opacity=".3"/></svg>
